X:430
T: MEINE SCHUHE SIND ZERISSEN
N: E1623
O: Europa, Mitteleuropa, Deutschland, Westerwald
R: Staende -, Handwerker -, Gesellen - Lied
M: 3/4
L: 1/8
K: G
DD | G2d2BG | F2d2
AF | G2d2BG | A4
AB | cee2e2 | d2B2
B2 | Add2c2 | B4

@@@ Tune index: 5114
